img/contact.svg

<?xml version="1.0" encoding="UTF-8" standalone="no"?>
<svg
   xmlns:dc="http://purl.org/dc/elements/1.1/"
   xmlns:cc="http://creativecommons.org/ns#"
   xmlns:rdf="http://www.w3.org/1999/02/22-rdf-syntax-ns#"
   xmlns:svg="http://www.w3.org/2000/svg"
   xmlns="http://www.w3.org/2000/svg"
   xmlns:xlink="http://www.w3.org/1999/xlink"
   id="svg4031"
   height="48"
   width="48"
   version="1.1">
  <defs
     id="defs4033">
    <linearGradient
       id="linearGradient4011">
      <stop
         offset="0"
         style="stop-color:#ffffff;stop-opacity:1"
         id="stop4013" />
      <stop
         offset="0.507761"
         style="stop-color:#ffffff;stop-opacity:0.23529412"
         id="stop4015" />
      <stop
         offset="0.83456558"
         style="stop-color:#ffffff;stop-opacity:0.15686275"
         id="stop4017" />
      <stop
         offset="1"
         style="stop-color:#ffffff;stop-opacity:0.39215687"
         id="stop4019" />
    </linearGradient>
    <linearGradient
       gradientTransform="matrix(1.054054,0,0,1.054054,-51.611001,-2.7279009)"
       gradientUnits="userSpaceOnUse"
       xlink:href="#linearGradient4011"
       id="linearGradient3012"
       y2="44.340794"
       x2="71.204407"
       y1="6.2375584"
       x1="71.204407" />
    <linearGradient
       id="linearGradient27416-1-2-0-1">
      <stop
         offset="0"
         style="stop-color:#43d6b5;stop-opacity:1"
         id="stop27420-2-0-8-7" />
      <stop
         offset="1"
         style="stop-color:#28bca3;stop-opacity:1"
         id="stop27422-3-5-3-3" />
    </linearGradient>
    <linearGradient
       y2="74.40242"
       x2="-53.44228"
       y1="41.401314"
       x1="-53.44228"
       gradientTransform="matrix(0.67764878,0,0,1.2335161,60.2151,-47.569187)"
       gradientUnits="userSpaceOnUse"
       id="linearGradient3066"
       xlink:href="#linearGradient27416-1-2-0-1" />
    <radialGradient
       xlink:href="#linearGradient3820-7-2"
       id="radialGradient3300-8"
       gradientUnits="userSpaceOnUse"
       gradientTransform="matrix(0.3823536,7.5555777e-8,-1.8372241e-8,0.1115198,-5.9254271,36.335849)"
       cx="99.189415"
       cy="185.29727"
       fx="99.189415"
       fy="185.29727"
       r="62.769119" />
    <linearGradient
       id="linearGradient3820-7-2">
      <stop
         id="stop3822-2-6"
         style="stop-color:#000000;stop-opacity:1"
         offset="0" />
      <stop
         id="stop3824-1-2"
         style="stop-color:#000000;stop-opacity:0"
         offset="1" />
    </linearGradient>
    <radialGradient
       xlink:href="#linearGradient3820-7-2"
       id="radialGradient4192-6"
       gradientUnits="userSpaceOnUse"
       gradientTransform="matrix(0.2549024,5.3967361e-8,-1.2248161e-8,0.07965545,6.7163816,44.240666)"
       cx="99.189415"
       cy="185.29727"
       fx="99.189415"
       fy="185.29727"
       r="62.769119" />
    <radialGradient
       cx="65.59787"
       cy="48.744953"
       r="31.000002"
       fx="65.59787"
       fy="48.744953"
       id="radialGradient3343"
       xlink:href="#linearGradient3242-7-3-8-0-4-58-06"
       gradientUnits="userSpaceOnUse"
       gradientTransform="matrix(0,0.95936489,-1.0436697,0,87.757589,-35.865792)" />
    <linearGradient
       id="linearGradient3242-7-3-8-0-4-58-06">
      <stop
         offset="0"
         style="stop-color:#cdf87e;stop-opacity:1"
         id="stop3244-5-8-5-6-4-3-8" />
      <stop
         offset="0.26238"
         style="stop-color:#a2e34f;stop-opacity:1"
         id="stop3246-9-5-1-5-3-0-7" />
      <stop
         offset="0.66093999"
         style="stop-color:#68b723;stop-opacity:1"
         id="stop3248-7-2-0-7-5-35-9" />
      <stop
         offset="1"
         style="stop-color:#1d7e0d;stop-opacity:1"
         id="stop3250-8-2-8-5-6-40-4" />
    </linearGradient>
    <linearGradient
       x1="24.138529"
       y1="9.712431"
       x2="24.138529"
       y2="36.594009"
       id="linearGradient3030"
       xlink:href="#linearGradient4154"
       gradientUnits="userSpaceOnUse"
       gradientTransform="matrix(0.70448868,0,0,0.59520312,21.241407,23.219131)" />
    <linearGradient
       id="linearGradient4154">
      <stop
         id="stop4156"
         style="stop-color:#ffffff;stop-opacity:1"
         offset="0" />
      <stop
         id="stop4158"
         style="stop-color:#ffffff;stop-opacity:0.23529412"
         offset="0" />
      <stop
         id="stop4160"
         style="stop-color:#ffffff;stop-opacity:0.15686275"
         offset="1" />
      <stop
         id="stop4162"
         style="stop-color:#ffffff;stop-opacity:0.39215687"
         offset="1" />
    </linearGradient>
    <linearGradient
       x1="24.138529"
       y1="20.271303"
       x2="24.138529"
       y2="26.006231"
       id="linearGradient3030-1"
       xlink:href="#linearGradient4154"
       gradientUnits="userSpaceOnUse"
       gradientTransform="matrix(0.60015241,0,0,0.69748032,23.556108,20.861165)" />
  </defs>
  <metadata
     id="metadata4036">
    <rdf:RDF>
      <cc:Work
         rdf:about="">
        <dc:format>image/svg+xml</dc:format>
        <dc:type
           rdf:resource="http://purl.org/dc/dcmitype/StillImage" />
        <dc:title />
      </cc:Work>
    </rdf:RDF>
  </metadata>
  <g
     id="g4198-4"
     transform="matrix(0.70833333,0,0,0.71428273,1.33333,0.78460484)"
     style="stroke-width:1.40587306">
    <path
       d="m 55.999998,57.0017 a 24,6.9985714 0 1 1 -47.9999991,0 24,6.9985714 0 1 1 47.9999991,0 z"
       id="path3818-0-6"
       style="opacity:0.2;fill:url(#radialGradient3300-8);fill-opacity:1;stroke:none;stroke-width:1.40587306" />
    <path
       style="opacity:0.4;fill:url(#radialGradient4192-6);fill-opacity:1;stroke:none;stroke-width:1.40587306"
       id="path4190-2"
       d="m 47.999998,59.0017 a 16,4.9988822 0 1 1 -31.999999,0 16,4.9988822 0 1 1 31.999999,0 z" />
  </g>
  <path
     d="m 44.5,24.003202 a 20.5,20.5 0 0 1 -40.9999995,0 20.5,20.5 0 1 1 40.9999995,0 z"
     id="path3029"
     style="color:#000000;fill:url(#linearGradient3066);fill-opacity:1;fill-rule:nonzero;stroke:none;stroke-width:1.54645538;marker:none;visibility:visible;display:inline;overflow:visible;enable-background:accumulate" />
  <path
     d="m 24,12.864627 c -4.711679,0 -8.531249,3.672664 -8.531249,8.203125 0,4.53046 3.81957,8.203124 8.531249,8.203124 4.711679,0 8.53125,-3.672664 8.53125,-8.203124 0,-4.530461 -3.819571,-8.203125 -8.53125,-8.203125 z M 20.872559,30.6449 c -3.840505,0 -7.162431,2.259439 -8.838867,5.578125 2.993323,3.19278 7.244474,5.188476 11.966308,5.188476 4.721835,0 8.972986,-1.995696 11.966309,-5.188476 C 34.289872,32.904339 30.967947,30.6449 27.127442,30.6449 l -6.254883,0 z"
     id="path3840"
     style="opacity:0.05;color:#000000;fill:#007367;fill-opacity:1;fill-rule:nonzero;stroke:#007367;stroke-width:2;marker:none;visibility:visible;display:inline;overflow:visible;enable-background:accumulate;stroke-opacity:1;stroke-miterlimit:4;stroke-dasharray:none" />
  <path
     style="opacity:0.15;color:#000000;fill:#007367;fill-opacity:1;fill-rule:nonzero;stroke:none;stroke-width:2;marker:none;visibility:visible;display:inline;overflow:visible;enable-background:accumulate"
     id="path3070"
     d="m 24,12.864627 c -4.711679,0 -8.531249,3.672664 -8.531249,8.203125 0,4.53046 3.81957,8.203124 8.531249,8.203124 4.711679,0 8.53125,-3.672664 8.53125,-8.203124 0,-4.530461 -3.819571,-8.203125 -8.53125,-8.203125 z M 20.872559,30.6449 c -3.840505,0 -7.162431,2.259439 -8.838867,5.578125 2.993323,3.19278 7.244474,5.188476 11.966308,5.188476 4.721835,0 8.972986,-1.995696 11.966309,-5.188476 C 34.289872,32.904339 30.967947,30.6449 27.127442,30.6449 l -6.254883,0 z" />
  <path
     d="m 24,11.864627 c -4.711679,0 -8.531249,3.672664 -8.531249,8.203125 0,4.53046 3.81957,8.203124 8.531249,8.203124 4.711679,0 8.53125,-3.672664 8.53125,-8.203124 0,-4.530461 -3.819571,-8.203125 -8.53125,-8.203125 z M 20.872559,29.6449 c -3.840505,0 -7.162431,2.259439 -8.838867,5.578125 2.993323,3.19278 7.244474,5.188476 11.966308,5.188476 4.721835,0 8.972986,-1.995696 11.966309,-5.188476 C 34.289872,31.904339 30.967947,29.6449 27.127442,29.6449 l -6.254883,0 z"
     id="rect3049"
     style="color:#000000;fill:#ffffff;fill-opacity:1;fill-rule:nonzero;stroke:none;stroke-width:2;marker:none;visibility:visible;display:inline;overflow:visible;enable-background:accumulate" />
  <path
     style="opacity:0.5;color:#000000;fill:none;stroke:url(#linearGradient3012);stroke-width:1;stroke-linecap:round;stroke-linejoin:round;stroke-miterlimit:4;stroke-opacity:1;stroke-dasharray:none;stroke-dashoffset:0;marker:none;visibility:visible;display:inline;overflow:visible;enable-background:accumulate"
     id="path8655"
     d="m 43.5,23.999308 c 0,10.7699 -8.73109,19.50069 -19.499753,19.50069 -10.769649,0 -19.5002474,-8.730889 -19.5002474,-19.50069 0,-10.769402 8.7305984,-19.4993078 19.5002474,-19.4993078 C 34.76891,4.5000002 43.5,13.229906 43.5,23.999308 l 0,0 z" />
  <path
     style="opacity:0.5;color:#000000;fill:#000000;fill-opacity:0;fill-rule:nonzero;stroke:#007367;stroke-width:1;stroke-linecap:round;stroke-linejoin:round;stroke-miterlimit:4;stroke-opacity:1;stroke-dasharray:none;stroke-dashoffset:0;marker:none;visibility:visible;display:inline;overflow:visible;enable-background:accumulate"
     id="path2555-6"
     d="m 24.000003,3.499998 c -11.311193,0 -20.5000034,9.188806 -20.5000034,20.5 0,11.311194 9.1888104,20.500005 20.5000034,20.500002 11.311188,0 20.500008,-9.188808 20.499997,-20.500002 0,-11.311194 -9.188809,-20.5 -20.499997,-20.5 z" />
  <g
     id="g4429"
     transform="translate(0.007286,0.02737)">
    <path
       style="color:#000000;display:inline;overflow:visible;visibility:visible;fill:url(#radialGradient3343);fill-opacity:1;fill-rule:nonzero;stroke:none;stroke-width:0.985427;stroke-linecap:round;stroke-linejoin:round;stroke-miterlimit:4;stroke-dasharray:none;stroke-dashoffset:0;stroke-opacity:1;marker:none;enable-background:accumulate"
       id="path2262"
       d="m 33.500001,33.5 v -6.02737 h 7 V 33.5 h 6.007286 v 7 h -6.007286 v 6.007286 h -7 V 40.5 h -6.007287 v -7 z" />
    <path
       d="M 34.500001,35.459225 V 28.5 h 5 v 6.949866 m 0,3.095588 V 45.5 h -5 v -6.954546"
       id="path2272-4"
       style="display:inline;opacity:0.5;fill:none;stroke:url(#linearGradient3030);stroke-width:1;stroke-linecap:butt;stroke-linejoin:miter;stroke-miterlimit:4;stroke-dasharray:none;stroke-opacity:1" />
    <path
       d="m 40,34.519929 5.499798,-0.01811 v 4.980302 L 40,39.500231 m -6,0 -5.500203,-0.01811 V 34.501819 L 34,34.519929"
       id="path2272-2"
       style="display:inline;opacity:0.5;fill:none;stroke:url(#linearGradient3030-1);stroke-width:1;stroke-linecap:butt;stroke-linejoin:miter;stroke-miterlimit:4;stroke-dasharray:none;stroke-opacity:1" />
    <path
       style="color:#000000;clip-rule:nonzero;display:inline;overflow:visible;visibility:visible;opacity:0.5;isolation:auto;mix-blend-mode:normal;color-interpolation:sRGB;color-interpolation-filters:linearRGB;solid-color:#000000;solid-opacity:1;fill:none;fill-opacity:1;fill-rule:nonzero;stroke:#0f5a00;stroke-width:1;stroke-linecap:round;stroke-linejoin:round;stroke-miterlimit:4;stroke-dasharray:none;stroke-dashoffset:0;stroke-opacity:1;marker:none;color-rendering:auto;image-rendering:auto;shape-rendering:auto;text-rendering:auto;enable-background:accumulate"
       id="path2262-2"
       d="m 33.500001,33.5 v -6.02737 h 7 V 33.5 h 6.007286 v 7 h -6.007286 v 6.007286 h -7 V 40.5 h -6.007287 v -7 z" />
  </g>
</svg>

<svg xmlns="http://www.w3.org/2000/svg" xmlns:xlink="http://www.w3.org/1999/xlink" width="48" height="48"><defs><linearGradient id="a"><stop offset="0" style="stop-color:#fff;stop-opacity:1"/><stop offset=".508" style="stop-color:#fff;stop-opacity:.23529412"/><stop offset=".835" style="stop-color:#fff;stop-opacity:.15686275"/><stop offset="1" style="stop-color:#fff;stop-opacity:.39215687"/></linearGradient><linearGradient xlink:href="#a" id="i" x1="71.204" x2="71.204" y1="6.238" y2="44.341" gradientTransform="matrix(1.05405 0 0 1.05405 -51.611 -2.728)" gradientUnits="userSpaceOnUse"/><linearGradient id="b"><stop offset="0" style="stop-color:#43d6b5;stop-opacity:1"/><stop offset="1" style="stop-color:#28bca3;stop-opacity:1"/></linearGradient><linearGradient xlink:href="#b" id="h" x1="-53.442" x2="-53.442" y1="41.401" y2="74.402" gradientTransform="matrix(.67765 0 0 1.23352 60.215 -47.57)" gradientUnits="userSpaceOnUse"/><linearGradient id="c"><stop offset="0" style="stop-color:#000;stop-opacity:1"/><stop offset="1" style="stop-color:#000;stop-opacity:0"/></linearGradient><linearGradient id="d"><stop offset="0" style="stop-color:#cdf87e;stop-opacity:1"/><stop offset=".262" style="stop-color:#a2e34f;stop-opacity:1"/><stop offset=".661" style="stop-color:#68b723;stop-opacity:1"/><stop offset="1" style="stop-color:#1d7e0d;stop-opacity:1"/></linearGradient><linearGradient xlink:href="#e" id="k" x1="24.139" x2="24.139" y1="9.712" y2="36.594" gradientTransform="matrix(.70449 0 0 .5952 21.241 23.22)" gradientUnits="userSpaceOnUse"/><linearGradient id="e"><stop offset="0" style="stop-color:#fff;stop-opacity:1"/><stop offset="0" style="stop-color:#fff;stop-opacity:.23529412"/><stop offset="1" style="stop-color:#fff;stop-opacity:.15686275"/><stop offset="1" style="stop-color:#fff;stop-opacity:.39215687"/></linearGradient><linearGradient xlink:href="#e" id="l" x1="24.139" x2="24.139" y1="20.271" y2="26.006" gradientTransform="matrix(.60015 0 0 .69748 23.556 20.861)" gradientUnits="userSpaceOnUse"/><radialGradient xlink:href="#c" id="f" cx="99.189" cy="185.297" r="62.769" fx="99.189" fy="185.297" gradientTransform="matrix(.38235 0 0 .11152 -5.925 36.336)" gradientUnits="userSpaceOnUse"/><radialGradient xlink:href="#c" id="g" cx="99.189" cy="185.297" r="62.769" fx="99.189" fy="185.297" gradientTransform="matrix(.2549 0 0 .07966 6.716 44.24)" gradientUnits="userSpaceOnUse"/><radialGradient xlink:href="#d" id="j" cx="65.598" cy="48.745" r="31" fx="65.598" fy="48.745" gradientTransform="matrix(0 .95936 -1.04367 0 87.758 -35.866)" gradientUnits="userSpaceOnUse"/></defs><g style="stroke-width:1.40587306"><path d="M56 57.002a24 6.999 0 1 1-48 0 24 6.999 0 1 1 48 0z" style="opacity:.2;fill:url(#f);fill-opacity:1;stroke:none;stroke-width:1.40587306" transform="matrix(.70833 0 0 .71428 1.333 .785)"/><path d="M48 59.002a16 4.999 0 1 1-32 0 16 4.999 0 1 1 32 0z" style="opacity:.4;fill:url(#g);fill-opacity:1;stroke:none;stroke-width:1.40587306" transform="matrix(.70833 0 0 .71428 1.333 .785)"/></g><path d="M44.5 24.003a20.5 20.5 0 0 1-41 0 20.5 20.5 0 1 1 41 0z" style="color:#000;fill:url(#h);fill-opacity:1;fill-rule:nonzero;stroke:none;stroke-width:1.54645538;marker:none;visibility:visible;display:inline;overflow:visible;enable-background:accumulate"/><path d="M24 12.865c-4.712 0-8.531 3.672-8.531 8.203 0 4.53 3.82 8.203 8.531 8.203 4.712 0 8.531-3.673 8.531-8.203 0-4.53-3.82-8.203-8.531-8.203zm-3.127 17.78c-3.84 0-7.163 2.26-8.84 5.578A16.351 16.351 0 0 0 24 41.412c4.722 0 8.973-1.996 11.966-5.189-1.676-3.319-4.998-5.578-8.839-5.578h-6.254z" style="opacity:.05;color:#000;fill:#007367;fill-opacity:1;fill-rule:nonzero;stroke:#007367;stroke-width:2;marker:none;visibility:visible;display:inline;overflow:visible;enable-background:accumulate;stroke-opacity:1;stroke-miterlimit:4;stroke-dasharray:none"/><path d="M24 12.865c-4.712 0-8.531 3.672-8.531 8.203 0 4.53 3.82 8.203 8.531 8.203 4.712 0 8.531-3.673 8.531-8.203 0-4.53-3.82-8.203-8.531-8.203zm-3.127 17.78c-3.84 0-7.163 2.26-8.84 5.578A16.351 16.351 0 0 0 24 41.412c4.722 0 8.973-1.996 11.966-5.189-1.676-3.319-4.998-5.578-8.839-5.578h-6.254z" style="opacity:.15;color:#000;fill:#007367;fill-opacity:1;fill-rule:nonzero;stroke:none;stroke-width:2;marker:none;visibility:visible;display:inline;overflow:visible;enable-background:accumulate"/><path d="M24 11.865c-4.712 0-8.531 3.672-8.531 8.203 0 4.53 3.82 8.203 8.531 8.203 4.712 0 8.531-3.673 8.531-8.203 0-4.53-3.82-8.203-8.531-8.203zm-3.127 17.78c-3.84 0-7.163 2.26-8.84 5.578A16.351 16.351 0 0 0 24 40.412c4.722 0 8.973-1.996 11.966-5.189-1.676-3.319-4.998-5.578-8.839-5.578h-6.254z" style="color:#000;fill:#fff;fill-opacity:1;fill-rule:nonzero;stroke:none;stroke-width:2;marker:none;visibility:visible;display:inline;overflow:visible;enable-background:accumulate"/><path d="M43.5 24c0 10.77-8.731 19.5-19.5 19.5-10.77 0-19.5-8.73-19.5-19.5S13.23 4.5 24 4.5c10.769 0 19.5 8.73 19.5 19.5h0z" style="opacity:.5;color:#000;fill:none;stroke:url(#i);stroke-width:1;stroke-linecap:round;stroke-linejoin:round;stroke-miterlimit:4;stroke-opacity:1;stroke-dasharray:none;stroke-dashoffset:0;marker:none;visibility:visible;display:inline;overflow:visible;enable-background:accumulate"/><path fill="none" d="M24 3.5C12.689 3.5 3.5 12.689 3.5 24S12.689 44.5 24 44.5 44.5 35.311 44.5 24 35.311 3.5 24 3.5z" style="opacity:.5;color:#000;fill:#000;fill-opacity:0;fill-rule:nonzero;stroke:#007367;stroke-width:1;stroke-linecap:round;stroke-linejoin:round;stroke-miterlimit:4;stroke-opacity:1;stroke-dasharray:none;stroke-dashoffset:0;marker:none;visibility:visible;display:inline;overflow:visible;enable-background:accumulate"/><path d="M33.5 33.5v-6.027h7V33.5h6.007v7H40.5v6.007h-7V40.5h-6.007v-7z" style="color:#000;display:inline;overflow:visible;visibility:visible;fill:url(#j);fill-opacity:1;fill-rule:nonzero;stroke:none;stroke-width:.985427;stroke-linecap:round;stroke-linejoin:round;stroke-miterlimit:4;stroke-dasharray:none;stroke-dashoffset:0;stroke-opacity:1;marker:none;enable-background:accumulate" transform="translate(.007 .027)"/><path d="M34.5 35.46V28.5h5v6.95m0 3.095V45.5h-5v-6.955" style="display:inline;opacity:.5;fill:none;stroke:url(#k);stroke-width:1;stroke-linecap:butt;stroke-linejoin:miter;stroke-miterlimit:4;stroke-dasharray:none;stroke-opacity:1" transform="translate(.007 .027)"/><path d="m40 34.52 5.5-.018v4.98L40 39.5m-6 0-5.5-.018v-4.98l5.5.018" style="display:inline;opacity:.5;fill:none;stroke:url(#l);stroke-width:1;stroke-linecap:butt;stroke-linejoin:miter;stroke-miterlimit:4;stroke-dasharray:none;stroke-opacity:1" transform="translate(.007 .027)"/><path d="M33.5 33.5v-6.027h7V33.5h6.007v7H40.5v6.007h-7V40.5h-6.007v-7z" style="color:#000;clip-rule:nonzero;display:inline;overflow:visible;visibility:visible;opacity:.5;isolation:auto;mix-blend-mode:normal;color-interpolation:sRGB;color-interpolation-filters:linearRGB;solid-color:#000;solid-opacity:1;fill:none;fill-opacity:1;fill-rule:nonzero;stroke:#0f5a00;stroke-width:1;stroke-linecap:round;stroke-linejoin:round;stroke-miterlimit:4;stroke-dasharray:none;stroke-dashoffset:0;stroke-opacity:1;marker:none;color-rendering:auto;image-rendering:auto;shape-rendering:auto;text-rendering:auto;enable-background:accumulate" transform="translate(.007 .027)"/></svg>
